svgs/light/tablet-screen-button.svg

<svg xmlns="http://www.w3.org/2000/svg" viewBox="0 0 448 512"><!-- Font Awesome Pro 6.0.0-alpha2 by @fontawesome - https://fontawesome.com License - https://fontawesome.com/license (Commercial License) --><path d="M384 0H64C28.654 0 0 28.654 0 64V448C0 483.346 28.654 512 64 512H384C419.346 512 448 483.346 448 448V64C448 28.654 419.346 0 384 0ZM416 448C416 465.645 401.645 480 384 480H64C46.355 480 32 465.645 32 448V352H416V448ZM416 320H32V64C32 46.355 46.355 32 64 32H384C401.645 32 416 46.355 416 64V320ZM224 440C237.312 440 248 429.312 248 416S237.312 392 224 392S200 402.688 200 416S210.688 440 224 440Z"/></svg>

<svg xmlns="http://www.w3.org/2000/svg" viewBox="0 0 448 512"><!--! Font Awesome Pro 6.3.0 by @fontawesome - https://fontawesome.com License - https://fontawesome.com/license (Commercial License) Copyright 2023 Fonticons, Inc. --><path d="M384 .0001H64c-35.35 0-64 28.65-64 64v384c0 35.35 28.65 63.1 64 63.1h320c35.35 0 64-28.65 64-63.1v-384C448 28.65 419.3 .0001 384 .0001zM416 448c0 17.64-14.36 32-32 32H64c-17.64 0-32-14.36-32-32v-96h384V448zM416 320H32V64c0-17.64 14.36-32 32-32h320c17.64 0 32 14.36 32 32V320zM224 440c13.31 0 24-10.69 24-24s-10.69-24-24-24S200 402.7 200 416S210.7 440 224 440z"/></svg>
